src/common/components/Icon/icons/Profile.svg

<svg viewBox="0 0 24 24" xmlns="http://www.w3.org/2000/svg">
<path d="M11.9992 0.00410433C11.5947 0.00410433 11.1951 0.0643635 10.8125 0.160181C10.5888 0.216898 10.373 0.291385 10.1573 0.378689C10.0743 0.412661 9.98954 0.433967 9.90773 0.472335C9.87377 0.488147 9.8478 0.518224 9.81414 0.534765C9.61116 0.635234 9.41248 0.751565 9.2211 0.878134C9.19413 0.895515 9.15407 0.891509 9.1274 0.90935C9.07116 0.947947 9.02651 0.993446 8.97137 1.03416C8.81465 1.14664 8.65013 1.24992 8.50309 1.37758C8.36904 1.49815 8.25397 1.64968 8.12851 1.78333C7.70388 2.21875 7.33579 2.67944 7.03592 3.21934C6.52109 4.12173 6.13672 5.13771 5.9747 6.18474C5.89649 6.16826 5.82477 6.16237 5.75614 6.18474C5.23162 6.35555 5.10237 7.35195 5.44399 8.40098C5.64447 9.0166 5.978 9.50126 6.31802 9.77446C6.77481 11.5503 7.74214 13.0306 9.00254 13.9576V14.9875L8.00365 15.9864L6.00586 16.9853C4.39036 17.7854 2.78104 18.5885 1.16744 19.3886C0.273298 19.928 -0.0726883 20.9868 0.0125171 21.9797C0.0541349 22.605 -0.171758 23.4051 0.449532 23.8217C1.03978 24.1253 1.744 23.9276 2.38488 23.9775C4.2594 23.9765 6.12913 23.9775 8.00365 23.9775C10.6697 23.9785 13.3287 23.9775 15.9948 23.9775C18.3592 23.9775 20.7165 23.9815 23.0809 23.9775C23.8481 23.9236 24.0608 23.1135 23.9859 22.4792C23.9999 21.5482 24.0548 20.5053 23.3306 19.7941C22.7393 19.1928 21.8982 18.9551 21.177 18.5455C20.1172 18.0211 19.0514 17.5097 17.9926 16.9853L15.9948 15.9864L14.9959 14.9875V13.9576C16.2565 13.0306 17.2234 11.5503 17.6809 9.77446C18.0205 9.50116 18.3542 9.0165 18.5539 8.40098C18.8956 7.35195 18.7667 6.35555 18.2423 6.18474C18.1734 6.16237 18.1024 6.16826 18.0235 6.18474C17.8617 5.13771 17.4771 4.12173 16.9627 3.21934C16.663 2.67944 16.2944 2.21875 15.8699 1.78333C15.7441 1.64968 15.6292 1.49815 15.4953 1.37758C15.4893 1.37209 15.4704 1.38307 15.4644 1.37758C15.0728 1.02807 14.6383 0.759326 14.1848 0.534765C14.0699 0.478608 13.958 0.426346 13.8412 0.378689C13.7573 0.344716 13.6764 0.3145 13.5914 0.285043C13.3367 0.196661 13.076 0.111675 12.8103 0.066535C12.7903 0.0631338 12.7684 0.0696796 12.7484 0.066535C12.4997 0.0274344 12.2539 0.00135738 11.9992 0.00410433Z" />
</svg>

<svg viewBox="0 0 24 24" >
  <g transform="translate(0 -1028.4)">
    <path
      d="m12 0c-0.405 0-0.805 0.060326-1.188 0.15625-0.224 0.05678-0.44 0.13135-0.656 0.21875-0.083 0.03401-0.1679 0.05534-0.2498 0.09375-0.034 0.01583-0.06 0.04594-0.0937 0.0625-0.2032 0.10058-0.4021 0.21704-0.5937 0.34375-0.027 0.0174-0.0671 0.01339-0.0938 0.03125-0.0563 0.03864-0.101 0.08419-0.1562 0.12495-0.1569 0.1126-0.3216 0.216-0.4688 0.3438-0.1342 0.1207-0.2494 0.2724-0.375 0.4062-0.4251 0.4359-0.7936 0.8971-1.0938 1.4376-0.5154 0.9034-0.9002 1.9205-1.0624 2.9687-0.0783-0.0165-0.1501-0.0224-0.2188 0-0.5251 0.171-0.6545 1.1685-0.3125 2.2187 0.2007 0.6163 0.5346 1.1015 0.875 1.375 0.4573 1.7778 1.4257 3.2598 2.6875 4.1878v1.031l-1 1-2 1c-1.6173 0.801-3.2284 1.605-4.8438 2.406-0.89513 0.54-1.2415 1.6-1.1562 2.594 0.041664 0.626-0.18448 1.427 0.4375 1.844 0.5909 0.304 1.2959 0.106 1.9375 0.156 1.8766-0.001 3.7484 0 5.625 0 2.669 0.001 5.331 0 8 0 2.367 0 4.727 0.004 7.094 0 0.768-0.054 0.981-0.865 0.906-1.5 0.014-0.932 0.069-1.976-0.656-2.688-0.592-0.602-1.434-0.84-2.156-1.25-1.061-0.525-2.128-1.037-3.188-1.562l-2-1-1-1v-1.031c1.262-0.928 2.23-2.41 2.688-4.1878 0.34-0.2736 0.674-0.7588 0.874-1.375 0.342-1.0502 0.213-2.0477-0.312-2.2187-0.069-0.0224-0.14-0.0165-0.219 0-0.162-1.0482-0.547-2.0653-1.062-2.9687-0.3-0.5405-0.669-1.0017-1.094-1.4376-0.126-0.1338-0.241-0.2855-0.375-0.4062-0.006-0.0055-0.025 0.0055-0.031 0-0.392-0.3499-0.827-0.61894-1.281-0.84375-0.115-0.05622-0.227-0.10854-0.344-0.15625-0.084-0.03401-0.165-0.06426-0.25-0.09375-0.255-0.08848-0.516-0.17356-0.782-0.21875-0.02-0.003405-0.042 0.003148-0.062 0-0.249-0.039144-0.495-0.06525-0.75-0.0625z"
      transform="translate(0 1028.4)"
    />
    <path d="m0 1051.4c0.026419 0.3 0.12651 0.6 0.4375 0.8 0.5909 0.3 1.2959 0.1 1.9375 0.2h5.625 8 7.094c0.576-0.1 0.842-0.5 0.906-1h-24z" />
  </g>
</svg>
